X:32
T:Pacific Slope
M:2/4
L:1/16
Z: Jason R. Fruit <Jason R. Fruit@big-mac>
R: breakdown
K:A
EF | A2cB Aceg | agbg aece | fdBG EGBd | cABA GEFG |
A2cB Aceg | agbg aece | fdBG EGBd | cABG A2 :|
|:cd | e2ae cdec | d2b2 B2be | !1!g!3!beb gbeb | ac'ec' ac'e!4!c' |
!4!e'2!2!c'2 !3!a2e2 | fedf edcA | Begf edcB | Aaec A2 :|

